src/img/precipation-rate.svg

<svg width="11" height="13" viewBox="0 0 11 13" fill="none" xmlns="http://www.w3.org/2000/svg">
<g clip-path="url(#clip0_35_77)">
<path d="M0.52209 7.98391C0.515987 8.84757 0.747259 9.69631 1.19066 10.4375C1.62958 11.1872 2.25384 11.8114 3.00352 12.2503C3.7509 12.6968 4.60579 12.9313 5.47638 12.9286C6.35252 12.9299 7.21292 12.6957 7.96745 12.2503C8.72446 11.8144 9.35566 11.1898 9.79959 10.4375C10.2496 9.67355 10.4778 8.86248 10.4778 7.98391C10.4778 7.41177 10.3149 6.73355 9.98173 5.94177C9.65941 5.16916 9.25609 4.4329 8.77852 3.74534C8.3017 3.13147 7.805 2.5333 7.28923 1.95177C6.71709 1.30248 5.71423 0.300697 5.48602 0.0714111L4.26459 1.30355C3.63751 1.91326 3.06564 2.57728 2.55566 3.28784C2.00414 4.05158 1.52764 4.8668 1.1328 5.72213C0.712805 6.58998 0.52209 7.34427 0.52209 7.98391Z" fill="white"/>
</g>
<defs>
<clipPath id="clip0_35_77">
<rect width="11" height="13" fill="white"/>
</clipPath>
</defs>
</svg>

<svg xmlns="http://www.w3.org/2000/svg" width="11" height="13" fill="none"><g clip-path="url(#a)"><path fill="#fff" d="M.522 7.984a4.7 4.7 0 0 0 .669 2.454 5.07 5.07 0 0 0 1.813 1.812 4.8 4.8 0 0 0 2.472.679 4.9 4.9 0 0 0 2.491-.679A5.06 5.06 0 0 0 9.8 10.438a4.74 4.74 0 0 0 .678-2.454q.002-.856-.496-2.042a12 12 0 0 0-1.203-2.197 36 36 0 0 0-1.49-1.793C6.717 1.302 5.714.3 5.486.072L4.265 1.303a15 15 0 0 0-1.71 1.984 14.6 14.6 0 0 0-1.422 2.434c-.42.868-.61 1.622-.61 2.262"/></g><defs><clipPath id="a"><path fill="#fff" d="M0 0h11v13H0z"/></clipPath></defs></svg>
